build/img/sprite/icon-vk.svg

<svg id="vk" width="26" height="26" viewBox="0 0 26 26" fill="currentColor" xmlns="http://www.w3.org/2000/svg">
<rect width="26" height="26" fill="currentColor"/>
<path fill-rule="evenodd" clip-rule="evenodd" d="M21.5871 8.71099C21.7116 8.30149 21.5871 8 20.9909 8H19.0222C18.5212 8 18.2902 8.26024 18.165 8.54749C18.165 8.54749 17.1637 10.9444 15.7455 12.5014C15.2865 12.9529 15.078 13.0961 14.8275 13.0961C14.7023 13.0961 14.514 12.9529 14.514 12.5427V8.71099C14.514 8.219 14.376 8 13.959 8H10.8631C10.5504 8 10.3621 8.228 10.3621 8.44474C10.3621 8.91048 11.0716 9.01848 11.1444 10.3295V13.1779C11.1444 13.8026 11.0296 13.9159 10.7791 13.9159C10.1116 13.9159 8.48791 11.5077 7.52418 8.75223C7.33743 8.216 7.14843 8 6.64519 8H4.67499C4.1125 8 4 8.26024 4 8.54749C4 9.05898 4.66749 11.5999 7.10868 14.9606C8.73615 17.2556 11.0274 18.4998 13.1146 18.4998C14.3663 18.4998 14.5208 18.2238 14.5208 17.7475V16.0128C14.5208 15.4601 14.6393 15.3498 15.036 15.3498C15.3285 15.3498 15.8288 15.4938 16.9972 16.6001C18.3322 17.9118 18.5519 18.4998 19.3034 18.4998H21.2721C21.8346 18.4998 22.1166 18.2238 21.9546 17.6778C21.7761 17.1348 21.1386 16.3466 20.2934 15.4113C19.8344 14.8789 19.1459 14.3051 18.9367 14.0179C18.6449 13.6496 18.7282 13.4854 18.9367 13.1576C18.9367 13.1576 21.3366 9.83821 21.5864 8.71099H21.5871Z" fill="white"/>
</svg>

<svg width="26" height="26" fill="currentColor" xmlns="http://www.w3.org/2000/svg"><path d="M0 0h26v26H0z"/><path fill-rule="evenodd" clip-rule="evenodd" d="M21.587 8.711c.125-.41 0-.711-.596-.711h-1.969c-.5 0-.732.26-.857.547 0 0-1.001 2.397-2.42 3.954-.458.452-.667.595-.917.595-.126 0-.314-.143-.314-.553V8.71c0-.492-.138-.711-.555-.711h-3.096c-.313 0-.5.228-.5.445 0 .465.709.573.781 1.884v2.849c0 .625-.114.738-.365.738-.667 0-2.291-2.408-3.255-5.164C7.337 8.216 7.148 8 6.645 8h-1.97C4.112 8 4 8.26 4 8.547c0 .512.667 3.053 3.109 6.414 1.627 2.295 3.918 3.539 6.006 3.539 1.251 0 1.406-.276 1.406-.753v-1.734c0-.553.118-.663.515-.663.293 0 .793.144 1.961 1.25 1.335 1.312 1.555 1.9 2.306 1.9h1.97c.562 0 .844-.276.682-.822-.179-.543-.816-1.331-1.662-2.267-.459-.532-1.147-1.106-1.356-1.393-.292-.368-.209-.533 0-.86 0 0 2.4-3.32 2.65-4.447Z" fill="#fff"/></svg>
